X: 15385
T: Glass Island
R: reel
M: 4/4
K: Eminor
|:EFGA BAGF|EFGA B3 B|cGEc GEcG|AFDA FDAF|
BGEB GEBG|BG G/G/G AF F/F/F|BAGB AFDF|1 EFGF E4:|2 EFGF EFGA||
|:Be e/e/e Bege|ce e/e/e cege|df f/f/f dfaf|gaba gfed|
Be e/e/e Bege|ce e/e/e cege|df f/f/f dfab|agfg e4:|

